src/images/baby-boy.svg

<?xml version="1.0" encoding="iso-8859-1"?>
<!-- Generator: Adobe Illustrator 19.0.0, SVG Export Plug-In . SVG Version: 6.00 Build 0)  -->
<svg version="1.1" id="Capa_1" xmlns="http://www.w3.org/2000/svg" xmlns:xlink="http://www.w3.org/1999/xlink" x="0px" y="0px"
	 viewBox="0 0 512 512" style="enable-background:new 0 0 512 512;" xml:space="preserve">
<g>
	<g>
		<path d="M298.102,479.277c-5.124-2.055-10.948,0.435-13.003,5.562c-1.717,4.283-6.071,7.161-10.833,7.161h-36.532
			c-4.762,0-9.116-2.878-10.833-7.161c-2.055-5.127-7.876-7.612-13.003-5.562c-5.126,2.056-7.616,7.877-5.561,13.003
			c4.803,11.98,16.341,19.72,29.397,19.72h36.532c13.056,0,24.594-7.74,29.396-19.72
			C305.718,487.154,303.228,481.333,298.102,479.277z"/>
	</g>
</g>
<g>
	<g>
		<path d="M415.541,427.762c-2.716-14.004-11.344-26.128-23.677-33.288c2.243-1.832,4.347-3.858,6.267-6.089
			c9.471-11.003,13.665-25.548,11.504-39.903c-3.509-23.324-13.436-45.117-28.707-63.024
			c-11.434-13.407-25.488-24.211-41.217-31.803c19.249-20.534,31.057-48.124,31.057-78.423
			c-0.001-52.434-35.348-96.769-83.465-110.428c6.554-7.825,10.13-17.601,10.13-27.931C297.434,16.541,280.892,0,260.561,0
			c-0.001,0-0.002,0-0.003,0c-8.207,0-15.894,2.669-21.643,7.514c-6.354,5.354-9.853,12.879-9.854,21.188c0,5.522,4.477,10,10,10
			c5.522,0,10-4.477,10-10c0-2.379,0.922-4.362,2.742-5.896c2.148-1.81,5.257-2.807,8.756-2.807h0.001
			c9.304,0,16.874,7.568,16.874,16.872c0,6.302-2.454,12.226-6.91,16.682c-4.456,4.455-10.379,6.909-16.679,6.909
			c-0.001,0-0.001,0-0.002,0c-0.245,0-0.485,0.019-0.725,0.037c-61.956,1.536-111.885,52.413-111.886,114.732
			c0,30.299,11.808,57.889,31.057,78.423c-15.728,7.592-29.782,18.395-41.216,31.803c-15.271,17.907-25.198,39.7-28.708,63.023
			c-2.16,14.356,2.033,28.901,11.504,39.904c1.92,2.231,4.024,4.258,6.267,6.089c-12.333,7.16-20.962,19.284-23.677,33.288
			c-2.723,14.04,0.771,28.553,9.584,39.816l21.415,27.365c8.652,11.056,21.795,17.001,35.126,17.001
			c7.568,0,15.198-1.916,22.1-5.901c19.061-11.005,27.229-34.697,19-55.109l-12.991-32.228c-0.868-2.153-1.894-4.218-3.039-6.202
			H261c5.523,0,10-4.478,10-10c0-5.522-4.477-10-10-10h-92.356v-21.081c0-2.715,2.208-4.923,4.923-4.923h164.867
			c2.714,0,4.923,2.208,4.923,4.923v22.464c-9.922,5.439-17.755,14.163-22.051,24.819l-12.991,32.227
			c-8.229,20.413-0.061,44.105,19,55.11c6.903,3.985,14.53,5.901,22.1,5.901c13.33,0,26.475-5.946,35.127-17.001l21.414-27.365
			C414.771,456.314,418.264,441.802,415.541,427.762z M161.231,175.232c0.001-52.255,42.515-94.768,94.769-94.769
			c52.254,0.001,94.768,42.514,94.769,94.769c0,52.255-42.513,94.768-94.769,94.769C203.745,270,161.231,227.487,161.231,175.232z
			 M172.146,426.183l12.991,32.229c4.525,11.227,0.031,24.258-10.452,30.311c-10.482,6.053-24.015,3.43-31.476-6.105l-21.415-27.365
			c-5.243-6.699-7.321-15.331-5.701-23.683c1.62-8.352,6.775-15.582,14.143-19.836c7.367-4.254,16.206-5.101,24.249-2.33
			C162.528,412.177,168.965,418.294,172.146,426.183z M338.5,326.5c-5.523,0-10,4.478-10,10v10H183.566v-10c0-5.522-4.477-10-10-10
			c-5.523,0-10,4.478-10,10v12.101c-8.777,3.861-14.923,12.635-14.923,22.822v14.121c-7.573-0.757-14.6-4.379-19.617-10.207
			c-5.667-6.585-8.176-15.289-6.884-23.88c5.725-38.053,31.097-69.494,66.716-83.206C207.75,281.925,230.948,290,256,290
			s48.25-8.075,67.142-21.749c35.619,13.712,60.991,45.153,66.716,83.206c1.292,8.591-1.217,17.295-6.885,23.88
			c-5.016,5.828-12.044,9.45-19.617,10.207v-14.121c0-10.161-6.115-18.916-14.856-22.792V336.5
			C348.5,330.978,344.023,326.5,338.5,326.5z M390.206,455.252l-21.414,27.365c-7.461,9.533-20.992,12.157-31.476,6.105
			c-10.484-6.053-14.977-19.084-10.451-30.313l12.991-32.228c3.181-7.89,9.618-14.006,17.661-16.779
			c3.115-1.073,6.349-1.604,9.571-1.604c5.097,0,10.164,1.329,14.678,3.935c7.368,4.254,12.522,11.484,14.143,19.836
			C397.527,439.921,395.449,448.553,390.206,455.252z"/>
	</g>
</g>
<g>
	<g>
		<path d="M307.79,395.43c-1.86-1.86-4.44-2.93-7.07-2.93s-5.21,1.069-7.07,2.93c-1.86,1.861-2.93,4.44-2.93,7.07
			c0,2.64,1.07,5.21,2.93,7.069c1.86,1.87,4.44,2.931,7.07,2.931s5.21-1.061,7.07-2.931c1.86-1.859,2.93-4.439,2.93-7.069
			S309.65,397.29,307.79,395.43z"/>
	</g>
</g>
<g>
	<g>
		<path d="M283.57,209.382c-4.29-3.478-10.587-2.817-14.065,1.472c-3.323,4.1-8.246,6.451-13.505,6.451
			c-5.259,0-10.183-2.352-13.505-6.451c-3.477-4.291-9.774-4.948-14.065-1.472c-4.291,3.477-4.95,9.774-1.472,14.065
			c7.138,8.807,17.724,13.857,29.042,13.857s21.905-5.051,29.042-13.857C288.52,219.156,287.861,212.859,283.57,209.382z"/>
	</g>
</g>
<g>
	<g>
		<path d="M230.731,168.16c-9.071-9.071-23.831-9.071-32.904,0c-3.905,3.905-3.906,10.236,0,14.142
			c3.905,3.906,10.237,3.906,14.142,0.001c1.273-1.273,3.346-1.273,4.62,0c1.953,1.952,4.512,2.929,7.071,2.929
			c2.559,0,5.119-0.977,7.071-2.929C234.636,178.398,234.636,172.066,230.731,168.16z"/>
	</g>
</g>
<g>
	<g>
		<path d="M314.173,168.159c-9.072-9.07-23.833-9.07-32.904,0c-3.905,3.905-3.905,10.237,0,14.143
			c1.952,1.953,4.512,2.929,7.071,2.929c2.559,0,5.119-0.977,7.071-2.929c1.273-1.272,3.346-1.274,4.62,0
			c3.905,3.906,10.237,3.905,14.142-0.001C318.078,178.396,318.078,172.065,314.173,168.159z"/>
	</g>
</g>
<g>
</g>
<g>
</g>
<g>
</g>
<g>
</g>
<g>
</g>
<g>
</g>
<g>
</g>
<g>
</g>
<g>
</g>
<g>
</g>
<g>
</g>
<g>
</g>
<g>
</g>
<g>
</g>
<g>
</g>
</svg>

<svg width="512" height="512" viewBox="0 0 512 512" fill="none" xmlns="http://www.w3.org/2000/svg">
<g clip-path="url(#clip0)">
<path d="M298.102 479.277C292.978 477.222 287.154 479.712 285.099 484.839C283.382 489.122 279.028 492 274.266 492H237.734C232.972 492 228.618 489.122 226.901 484.839C224.846 479.712 219.025 477.227 213.898 479.277C208.772 481.333 206.282 487.154 208.337 492.28C213.14 504.26 224.678 512 237.734 512H274.266C287.322 512 298.86 504.26 303.662 492.28C305.718 487.154 303.228 481.333 298.102 479.277Z" fill="url(#paint0_linear)"/>
<path d="M415.541 427.762C412.825 413.758 404.197 401.634 391.864 394.474C394.107 392.642 396.211 390.616 398.131 388.385C407.602 377.382 411.796 362.837 409.635 348.482C406.126 325.158 396.199 303.365 380.928 285.458C369.494 272.051 355.44 261.247 339.711 253.655C358.96 233.121 370.768 205.531 370.768 175.232C370.767 122.798 335.42 78.463 287.303 64.804C293.857 56.979 297.433 47.203 297.433 36.873C297.434 16.541 280.892 0 260.561 0H260.558C252.351 0 244.664 2.669 238.915 7.514C232.561 12.868 229.062 20.393 229.061 28.702C229.061 34.224 233.538 38.702 239.061 38.702C244.583 38.702 249.061 34.225 249.061 28.702C249.061 26.323 249.983 24.34 251.803 22.806C253.951 20.996 257.06 19.999 260.559 19.999H260.56C269.864 19.999 277.434 27.567 277.434 36.871C277.434 43.173 274.98 49.097 270.524 53.553C266.068 58.008 260.145 60.462 253.845 60.462H253.843C253.598 60.462 253.358 60.481 253.118 60.499C191.162 62.035 141.233 112.912 141.232 175.231C141.232 205.53 153.04 233.12 172.289 253.654C156.561 261.246 142.507 272.049 131.073 285.457C115.802 303.364 105.875 325.157 102.365 348.48C100.205 362.836 104.398 377.381 113.869 388.384C115.789 390.615 117.893 392.642 120.136 394.473C107.803 401.633 99.174 413.757 96.459 427.761C93.736 441.801 97.23 456.314 106.043 467.577L127.458 494.942C136.11 505.998 149.253 511.943 162.584 511.943C170.152 511.943 177.782 510.027 184.684 506.042C203.745 495.037 211.913 471.345 203.684 450.933L190.693 418.705C189.825 416.552 188.799 414.487 187.654 412.503H261C266.523 412.503 271 408.025 271 402.503C271 396.981 266.523 392.503 261 392.503H168.644V371.422C168.644 368.707 170.852 366.499 173.567 366.499H338.434C341.148 366.499 343.357 368.707 343.357 371.422V393.886C333.435 399.325 325.602 408.049 321.306 418.705L308.315 450.932C300.086 471.345 308.254 495.037 327.315 506.042C334.218 510.027 341.845 511.943 349.415 511.943C362.745 511.943 375.89 505.997 384.542 494.942L405.956 467.577C414.771 456.314 418.264 441.802 415.541 427.762ZM161.231 175.232C161.232 122.977 203.746 80.464 256 80.463C308.254 80.464 350.768 122.977 350.769 175.232C350.769 227.487 308.256 270 256 270.001C203.745 270 161.231 227.487 161.231 175.232ZM172.146 426.183L185.137 458.412C189.662 469.639 185.168 482.67 174.685 488.723C164.203 494.776 150.67 492.153 143.209 482.618L121.794 455.253C116.551 448.554 114.473 439.922 116.093 431.57C117.713 423.218 122.868 415.988 130.236 411.734C137.603 407.48 146.442 406.633 154.485 409.404C162.528 412.177 168.965 418.294 172.146 426.183ZM338.5 326.5C332.977 326.5 328.5 330.978 328.5 336.5V346.5H183.566V336.5C183.566 330.978 179.089 326.5 173.566 326.5C168.043 326.5 163.566 330.978 163.566 336.5V348.601C154.789 352.462 148.643 361.236 148.643 371.423V385.544C141.07 384.787 134.043 381.165 129.026 375.337C123.359 368.752 120.85 360.048 122.142 351.457C127.867 313.404 153.239 281.963 188.858 268.251C207.75 281.925 230.948 290 256 290C281.052 290 304.25 281.925 323.142 268.251C358.761 281.963 384.133 313.404 389.858 351.457C391.15 360.048 388.641 368.752 382.973 375.337C377.957 381.165 370.929 384.787 363.356 385.544V371.423C363.356 361.262 357.241 352.507 348.5 348.631V336.5C348.5 330.978 344.023 326.5 338.5 326.5ZM390.206 455.252L368.792 482.617C361.331 492.15 347.8 494.774 337.316 488.722C326.832 482.669 322.339 469.638 326.865 458.409L339.856 426.181C343.037 418.291 349.474 412.175 357.517 409.402C360.632 408.329 363.866 407.798 367.088 407.798C372.185 407.798 377.252 409.127 381.766 411.733C389.134 415.987 394.288 423.217 395.909 431.569C397.527 439.921 395.449 448.553 390.206 455.252Z" fill="url(#paint1_linear)"/>
<path d="M307.79 395.43C305.93 393.57 303.35 392.5 300.72 392.5C298.09 392.5 295.51 393.569 293.65 395.43C291.79 397.291 290.72 399.87 290.72 402.5C290.72 405.14 291.79 407.71 293.65 409.569C295.51 411.439 298.09 412.5 300.72 412.5C303.35 412.5 305.93 411.439 307.79 409.569C309.65 407.71 310.72 405.13 310.72 402.5C310.72 399.87 309.65 397.29 307.79 395.43Z" fill="url(#paint2_linear)"/>
<path d="M283.57 209.382C279.28 205.904 272.983 206.565 269.505 210.854C266.182 214.954 261.259 217.305 256 217.305C250.741 217.305 245.817 214.953 242.495 210.854C239.018 206.563 232.721 205.906 228.43 209.382C224.139 212.859 223.48 219.156 226.958 223.447C234.096 232.254 244.682 237.304 256 237.304C267.318 237.304 277.905 232.253 285.042 223.447C288.52 219.156 287.861 212.859 283.57 209.382Z" fill="url(#paint3_linear)"/>
<path d="M230.731 168.16C221.66 159.089 206.9 159.089 197.827 168.16C193.922 172.065 193.921 178.396 197.827 182.302C201.732 186.208 208.064 186.208 211.969 182.303C213.242 181.03 215.315 181.03 216.589 182.303C218.542 184.255 221.101 185.232 223.66 185.232C226.219 185.232 228.779 184.255 230.731 182.303C234.636 178.398 234.636 172.066 230.731 168.16Z" fill="url(#paint4_linear)"/>
<path d="M314.173 168.159C305.101 159.089 290.34 159.089 281.269 168.159C277.364 172.064 277.364 178.396 281.269 182.302C283.221 184.255 285.781 185.231 288.34 185.231C290.899 185.231 293.459 184.254 295.411 182.302C296.684 181.03 298.757 181.028 300.031 182.302C303.936 186.208 310.268 186.207 314.173 182.301C318.078 178.396 318.078 172.065 314.173 168.159Z" fill="url(#paint5_linear)"/>
</g>
<defs>
<linearGradient id="paint0_linear" x1="256" y1="478.556" x2="256" y2="512" gradientUnits="userSpaceOnUse">
<stop stop-color="#EE4869" stop-opacity="0"/>
<stop offset="1" stop-color="#A31934"/>
</linearGradient>
<linearGradient id="paint1_linear" x1="256" y1="0" x2="256" y2="511.943" gradientUnits="userSpaceOnUse">
<stop stop-color="#EE4869" stop-opacity="0"/>
<stop offset="0.984375" stop-color="#A70A00"/>
</linearGradient>
<linearGradient id="paint2_linear" x1="300.72" y1="392.5" x2="300.72" y2="412.5" gradientUnits="userSpaceOnUse">
<stop stop-color="#F5430B"/>
<stop offset="1" stop-color="#A7371E"/>
</linearGradient>
<linearGradient id="paint3_linear" x1="256" y1="207.151" x2="256" y2="237.304" gradientUnits="userSpaceOnUse">
<stop stop-color="#A61330" stop-opacity="0"/>
<stop offset="1" stop-color="#A71EA0"/>
</linearGradient>
<linearGradient id="paint4_linear" x1="214.279" y1="161.357" x2="214.279" y2="185.232" gradientUnits="userSpaceOnUse">
<stop stop-color="#A61330" stop-opacity="0"/>
<stop offset="1" stop-color="#A71EA0"/>
</linearGradient>
<linearGradient id="paint5_linear" x1="297.721" y1="161.356" x2="297.721" y2="185.231" gradientUnits="userSpaceOnUse">
<stop stop-color="#A61330" stop-opacity="0"/>
<stop offset="1" stop-color="#A71EA0"/>
</linearGradient>
<clipPath id="clip0">
<rect width="512" height="512" fill="white"/>
</clipPath>
</defs>
</svg>
